!!!COM:	Josquin des Prez
!!!CDT:	~1450-1521/08/27
!!!OPR:	Missa Pange lingua
!!!ONM:	2
!!!OTL:	Gloria
!!!AGN:	Mass; Gloria
!!!SCT:	NJE 4.3
!!!SCA:	New Josquin Edition 4.3
!!!voices: 4
!!!voices-OPR:	4
**kern	**kern	**kern	**kern
*staff4	*staff3	*staff2	*staff1
*Ivox	*Ivox	*Ivox	*Ivox
*I"Bassus	*I"Tenor	*I"Altus	*I"Superius
*I'B	*I'T	*I'A	*I'S
*>[A,B]	*>[A,B]	*>[A,B]	*>[A,B]
*>Gloria[A]	*>Gloria[A]	*>Gloria[A]	*>Gloria[A]
*>QuiTollis[B]	*>QuiTollis[B]	*>QuiTollis[B]	*>QuiTollis[B]
*clefF4	*clefGv2	*clefGv2	*clefG2
*>A	*>A	*>A	*>A
*k[]	*k[]	*k[]	*k[]
*M3/1	*M3/1	*M3/1	*M3/1
*met(O)	*met(O)	*met(O)	*met(O)
=1-	=1-	=1-	=1-
!!section: Et in terra pax
!!!OMD: Et in terra pax
0.r	1E	0.r	0.r
.	1E	.	.
.	1F	.	.
=2	=2	=2	=2
1AA	0E	0.r	0.r
1AA	.	.	.
1BB	2D/	.	.
.	2G/	.	.
=3	=3	=3	=3
0AA	2A/	0.r	0.r
.	1c	.	.
.	4B\	.	.
.	4A/	.	.
1GG	2.B\	.	.
.	4A/	.	.
=4	=4	=4	=4
1G	4B\	0.r	0.r
.	4c\	.	.
.	1d	.	.
2F\	.	.	.
2E\	2G/	.	.
1D	2A/	.	.
.	2B\	.	.
=5	=5	=5	=5
0C	1c	0.r	0.r
.	2r	.	.
.	2G/	.	.
2r	2A/	.	.
2GG/	2B\	.	.
=6	=6	=6	=6
2AA/	2c\	0.r	0.r
2BB/	2.d\	.	.
2C/	.	.	.
.	4c\	.	.
2E\	1c	.	.
1D	.	.	.
.	2B\	.	.
=7	=7	=7	=7
0C	0c	0.r	1e
.	.	.	1e
1r	1F	.	1f
=8	=8	=8	=8
0.r	0c	1A	0e
.	.	1A	.
.	1r	1B	2d/
.	.	.	2g/
=9	=9	=9	=9
0.r	0.r	0A	2a/
.	.	.	1cc
.	.	.	4b\
.	.	.	4a/
.	.	1G	2.b\
.	.	.	4a/
=10	=10	=10	=10
0.r	0.r	1g	4b\
.	.	.	4cc\
.	.	.	1dd
.	.	2f\	.
.	.	2e\	2g/
.	.	1d	2a/
.	.	.	2b\
=11	=11	=11	=11
0.r	0.r	0c	1cc
.	.	.	2r
.	.	.	2g/
.	.	2r	2a/
.	.	2G/	2b\
=12	=12	=12	=12
0.r	0.r	2A/	2cc\
.	.	2B\	2.dd\
.	.	2c\	.
.	.	.	4cc\
.	.	2e\	1cc
.	.	1d	.
.	.	.	2b\
=13	=13	=13	=13
0.r	1r	0c	1cc
.	2r	.	2r
.	2C/	.	2g/
.	2F/	2A/	2a/
.	2E/	2B\	2g/
=14	=14	=14	=14
1r	0C	1c	1e
2r	.	2r	2r
2C/	.	2c\	2g/
2F\	1r	2A/	2a/
2E\	.	2B\	2g/
=15	=15	=15	=15
0C	2r	1c	2e/
.	2E/	.	2.g/
.	2E/	2r	.
.	.	.	4f/
.	2E/	2g\	2e/
1r	2F/	2a\	1d
.	2G/	2g\	.
=16	=16	=16	=16
2r	0C	2e\	1r
2E\	.	2.g\	.
2E\	.	.	2r
.	.	4f\	.
2E\	.	2e\	2g/
2F\	1r	1d	2a/
2G\	.	.	2g/
=17	=17	=17	=17
0C	2r	1r	2e/
.	1E	.	2.g/
.	.	2r	.
.	.	.	4f/
.	2E/	2g\	2e/
1r	2F/	2a\	1d
.	2G/	2g\	.
=18	=18	=18	=18
2r	0C	2e\	1r
1E	.	2.g\	.
.	.	.	2r
.	.	4f\	.
2E\	.	2e\	2g/
2F\	1r	1d	2a/
2G\	.	.	2g/
=19	=19	=19	=19
0C	2r	1r	2e/
.	2E/	.	2.g/
.	2E/	2r	.
.	.	.	4f/
.	2E/	2g\	2e/
1r	2F/	2a\	2d/
.	2G/	2g\	2dd\
=20	=20	=20	=20
2r	0C	2e\	2cc\
2E\	.	2.g\	2.ee\
2E\	.	.	.
.	.	4f\	4dd\
2E\	.	2e\	1cc
2F\	1r	1d	.
2G\	.	.	2b\
=21	=21	=21	=21
0C	0.r	0c	1cc
.	.	.	2r
.	.	.	2cc\
1r	.	2r	2dd\
.	.	2c\	2cc\
=22	=22	=22	=22
0.r	0.r	2d\	2a/
.	.	2c\	2.cc\
.	.	2A/	.
.	.	.	4b\
.	.	1c	4a/
.	.	.	4g/
.	.	.	2a/
.	.	2B\	[2g/
=23	=23	=23	=23
1r	2r	1A	2g/]
.	2c\	.	2f#i/
2r	2d\	1G	1g
2C/	2c\	.	.
2D\	2A/	1r	1r
2C/	[2c\	.	.
=24	=24	=24	=24
2AA/	4c\]	0.r	0.r
.	4B\	.	.
1C	4A/	.	.
.	4G/	.	.
.	2A/	.	.
2BB/	1G	.	.
1AA	.	.	.
.	2F#i/	.	.
=25	=25	=25	=25
0GG	1G	0.r	0.r
.	2r	.	.
.	2G/	.	.
1C	2G/	.	.
.	[2G/	.	.
=26	=26	=26	=26
2C/	2G/]	0.r	0.r
1C	2G/	.	.
.	2A/	.	.
2C/	2A/	.	.
2D\	2.B\	.	.
2D\	.	.	.
.	4A/	.	.
=27	=27	=27	=27
1E	4G/	1r	2.g/
.	4F/	.	.
.	1G	.	.
.	.	.	4g/
2.C/	.	2.c\	2g/
.	2E/	.	2g/
4BB/	.	4c\	.
1AA	2F/	2c\	2a/
.	2C/	2c\	2a/
=28	=28	=28	=28
1GG	1G	2d\	1b
.	.	2d\	.
2.C/	2r	1e	2g/
.	2E/	.	1cc
4BB/	.	.	.
1AA	2F/	1c	.
.	2C/	.	4b\
.	.	.	4a/
=29	=29	=29	=29
0GG	0.G	2.d\	0.b
.	.	4c\	.
.	.	2d\	.
.	.	1e	.
2.G\	.	.	.
.	.	2d\	.
4F\	.	.	.
=30	=30	=30	=30
4E\	0.r	1e	2r
4D\	.	.	.
2.C/	.	.	2g/
.	.	2r	2a/
4BB/	.	.	.
2AA/	.	2c\	2a/
1GG	.	2d\	1b
.	.	2d\	.
=31	=31	=31	=31
1C	0.r	1e	2g/
.	.	.	1cc
1r	.	2c\	.
.	.	1g	2b\
1r	.	.	1a
.	.	2f\	.
=32	=32	=32	=32
0.r	0.r	1e	1g
.	.	1d	2r
.	.	.	2dd\
.	.	2r	2cc\
.	.	2g\	2b\
=33	=33	=33	=33
0.r	0.r	2f\	2a/
.	.	2e\	2.cc\
.	.	2d\	.
.	.	.	4b\
.	.	2f\	2a/
.	.	4e\	4g/
.	.	4c\	4e/
.	.	2d\	2f/
=34	=34	=34	=34
2r	1r	2c\	1e
2C/	.	2g\	.
2D\	1r	2f\	1r
2E\	.	2.e\	.
1F	2r	.	2r
.	.	4c\	.
.	2A/	2d\	2a/
=35	=35	=35	=35
1E	2B\	1e	2g/
.	2c\	.	2e/
1r	1d	1r	1f
2r	1c	2r	1e
2C/	.	2e\	.
=36	=36	=36	=36
2D\	1r	2f\	1r
2E\	.	2.e\	.
1F	2r	.	2r
.	.	4c\	.
.	2A/	2d\	2a/
1E	2B\	1e	2g/
.	2c\	.	2e/
=37	=37	=37	=37
1r	1d	1r	1f
2r	1c	2r	1e
2C/	.	2e\	.
2D\	1r	2f\	1r
2E\	.	[2e\	.
=38	=38	=38	=38
1F	2r	4e\]	2r
.	.	4c\	.
.	2A/	2d\	2a/
1E	2B\	1e	2g/
.	2c\	.	2e/
2r	1d	1r	1f
2D\	.	.	.
=39	=39	=39	=39
2A\	2c\	2r	1e
2A\	2A/	2c\	.
2.G\	2B\	2d\	2r
.	2G/	2e\	2g/
4F\	.	.	.
1D	1d	1f	2a/
.	.	.	2b\
=40	=40	=40	=40
1A	2c\	2e\	1cc
.	2A/	2c\	.
2.G\	1B	2d\	2b\
.	.	2e\	2g/
4F\	.	.	.
1D	1d	1f	2a/
.	.	.	2b\
=41	=41	=41	=41
1A	2c\	2e\	1cc
.	2A/	2c\	.
1G	2B\	2d\	1b
.	2G/	2e\	.
1r	1d	1f	1r
=42	=42	=42	=42
2r	1c	1e	2r
2C/	.	.	2g/
2F\	1r	1r	2a/
2D\	.	.	2b\
1A	2r	2r	1cc
.	2A/	2c\	.
=43	=43	=43	=43
2G\	2B\	2d\	2b\
2C/	2.c\	2e\	2g/
2F\	.	1f	2a/
.	4A/	.	.
2D\	2d\	.	2b\
1A	4c\	[1el	1cc
.	4B\	.	.
.	2A/	.	.
=44	=44	=44	=44
0.El	0.Gl	0.e]	0.bl
!!LO:LB:i:g=z
=45||	=45||	=45||	=45||
*>B	*>B	*>B	*>B
!!sectoin: Qui tollis
!!!OMD: Qui tollis
*M2/1	*M2/1	*M2/1	*M2/1
*met(C|)	*met(C|)	*met(C|)	*met(C|)
0r	0r	0r	0b
=46	=46	=46	=46
0r	0r	0r	1cc
.	.	.	1cc
=47	=47	=47	=47
0r	0r	0e	1b
.	.	.	1b
=48	=48	=48	=48
0r	0r	1f	2.a/
.	.	.	4b\
.	.	1f	2cc\
.	.	.	[2dd\
=49	=49	=49	=49
0r	0A	1e	2dd\]
.	.	.	4cc#i\
.	.	.	4b\
.	.	1e	1cc#i
=50	=50	=50	=50
0r	1B-	2.d\	0dd
.	.	4e\	.
.	1B-i	2f\	.
.	.	[2g\	.
=51	=51	=51	=51
0D	1A	2g\]	0r
.	.	4f#i\	.
.	.	4e\	.
.	1A	1f#i	.
=52	=52	=52	=52
1E	2.G/	0g	0r
.	4A/	.	.
1E	2B\	.	.
.	[2c\	.	.
=53	=53	=53	=53
1D	2c\]	0r	0r
.	4B\	.	.
.	4A/	.	.
1D	1B	.	.
=54	=54	=54	=54
2.C/	[0c	0r	0r
4D\	.	.	.
2E\	.	.	.
[2F\	.	.	.
=55	=55	=55	=55
2F\]	0c]	0r	1r
4E\	.	.	.
4D\	.	.	.
1E	.	.	1g
=56	=56	=56	=56
1AA	1r	1r	1cc
1A	1c	1e	1cc
=57	=57	=57	=57
1A	1A	1e	1cc
1G	1B	1e	1b
=58	=58	=58	=58
1F	1c	0f	0a
1D	1d	.	.
=59	=59	=59	=59
1.E	2B\	0e	[0g
.	1c	.	.
2F\	4B\	.	.
.	4A/	.	.
=60	=60	=60	=60
0G	[0B	[0d	0g]
=61	=61	=61	=61
1r	0B]	0d]	0r
1GG	.	.	.
=62	=62	=62	=62
1.C	1r	0r	0r
.	1G	.	.
2C/	.	.	.
=63	=63	=63	=63
1C	1A	0r	0r
1D	1A	.	.
=64	=64	=64	=64
2.E\	2.G/	0r	0r
4F\	4A/	.	.
2G\	4B\	.	.
.	4c\	.	.
[2F\	[2d\	.	.
=65	=65	=65	=65
2F\]	4d\]	0r	0r
.	4c\	.	.
2E\	2.c\	.	.
1D	.	.	.
.	4B\	.	.
.	4B\	.	.
.	4A/	.	.
=66	=66	=66	=66
0C	0c	0r	0r
=67	=67	=67	=67
1r	1r	1r	1r
[1C	[1c	[1g	[1cc
=68	=68	=68	=68
2C/]	2c\]	2g\]	2cc\]
2C/	2c\	2g\	2cc\
1C	1c	1g	1cc
=69	=69	=69	=69
1.G	1.d	1.g	1.b
2G\	2d\	2g\	2b\
=70	=70	=70	=70
2G\	2d\	2g\	2b\
2G\	2d\	2g\	2b\
1G	1d	1g	1b
=71	=71	=71	=71
2.D\	1d	1.f	2.a/
4E\	.	.	4g/
4F\	2.c\	.	4a/
4G\	.	.	4b\
[2A\	.	4e\	[2cc\
.	4B\	4d\	.
=72	=72	=72	=72
2A\]	2c\	2e\	4cc\]
.	.	.	4b\
2D\	2d\	2f\	1a
1E	1B	1e	.
.	.	.	2g#i/
=73	=73	=73	=73
[0AA	0A	1.c	1a
.	.	.	2r
.	.	2A/	2cc\
=74	=74	=74	=74
0AA]	1c	0A	2a/
.	.	.	1cc
.	2A/	.	.
.	[2c\	.	4b\
.	.	.	4a/
=75	=75	=75	=75
0r	2c\]	0r	2g/
.	4B\	.	2a/
.	4A/	.	.
.	2G/	.	2b\
.	2A/	.	2e/
=76	=76	=76	=76
0r	2B\	0r	2.g/
.	2E/	.	.
.	.	.	4a/
.	4G/	.	4b\
.	4A/	.	4cc\
.	4B\	.	[2b\
.	4c\	.	.
=77	=77	=77	=77
0r	2d\	0r	4b\]
.	.	.	4a/
.	1e	.	1cc
.	4d\	.	4b\
.	4c\	.	4a/
=78	=78	=78	=78
2r	0B	2E/	0g
2E\	.	2G/	.
2G\	.	2E/	.
2E\	.	[2G/	.
=79	=79	=79	=79
1G	0r	4G/]	0r
.	.	4E/	.
.	.	2.e\	.
1F	.	.	.
.	.	4d\	.
.	.	4d\	.
.	.	4c\	.
=80	=80	=80	=80
0E	2E/	0e	2r
.	2G/	.	2e/
.	2E/	.	2g/
.	[2G/	.	2e/
=81	=81	=81	=81
0r	4G/]	0r	1g
.	4E/	.	.
.	2.e\	.	.
.	.	.	1f
.	4d\	.	.
.	4d\	.	.
.	4c\	.	.
=82	=82	=82	=82
0r	1e	2r	2e/
.	.	2e\	2g/
.	1r	2c\	2a/
.	.	2d\	2b\
=83	=83	=83	=83
0r	0r	2.e\	2.cc\
.	.	4d\	4b\
.	.	2c\	2a/
.	.	2B\	2g#i/
=84	=84	=84	=84
2r	2r	1A	1a
2A\	2c\	.	.
2F\	2d\	1r	1r
2G\	2e\	.	.
=85	=85	=85	=85
2.A\	2.f\	1r	0r
4G\	4e\	.	.
2F\	2d\	2r	.
2E\	2c#i\	2e\	.
=86	=86	=86	=86
1D	1d	2.f\	1r
.	.	4e\	.
2r	1r	2d\	2r
2F\	.	2c\	2a/
=87	=87	=87	=87
2.G\	1r	1B	2.b\
4F\	.	.	4a/
2E\	2r	1r	2g/
2D\	2d\	.	2f/
=88	=88	=88	=88
2.C/	2.e\	2r	2e/
.	.	2e\	1g
4D\	4d\	.	.
1E	2c\	1e	.
.	2B\	.	2g/
=89	=89	=89	=89
2r	2A/	1c	1a
2AA/	1c	.	.
1A	.	2r	1cc
.	2c\	2A/	.
=90	=90	=90	=90
1G	1d	2B\	1b
.	.	2G/	.
2r	1f	1d	1a
2D\	.	.	.
=91	=91	=91	=91
2E\	1e	0r	2.g/
2C/	.	.	.
.	.	.	4a/
1G	1d	.	4b\
.	.	.	4cc\
.	.	.	4dd\
.	.	.	4b\
=92	=92	=92	=92
2r	1.c	1e	2cc\
2C/	.	.	2g/
2.F\	.	1f	2a/
.	2A/	.	[2cc\
4G\	.	.	.
=93	=93	=93	=93
2A\	2c\	2e\	4cc\]
.	.	.	4b\
2D\	2d\	2f\	2.a/
1E	1B	1e	.
.	.	.	4g#i/
.	.	.	4g#i/
.	.	.	4f#i/
=94	=94	=94	=94
[0AA	0A	1.c	1a
.	.	.	2r
.	.	2A/	2e/
=95	=95	=95	=95
0AA]	1r	0A	2.a/
.	.	.	4g/
.	2r	.	2f/
.	2c\	.	2e/
=96	=96	=96	=96
1r	2.d\	0r	0d
.	4c\	.	.
2r	2B\	.	.
2D\	2A/	.	.
=97	=97	=97	=97
2.G\	1G	1r	0r
4F\	.	.	.
2E\	1r	2r	.
2D\	.	2d\	.
=98	=98	=98	=98
1C	0r	2.e\	1r
.	.	4d\	.
2r	.	2c\	2r
2E\	.	2B\	2g/
=99	=99	=99	=99
2F\	1r	1A	2a/
2D\	.	.	2b\
1A	2r	2r	1cc
.	2A/	2c\	.
=100	=100	=100	=100
1G	2B\	2d\	2b\
.	2B\	2e\	2g/
2F\	2c\	1f	1a
2D\	2F/	.	.
=101	=101	=101	=101
1E	1G	2e\	2g/
.	.	2c\	2e/
2.D\	[1A	1d	1f
4C/	.	.	.
=102	=102	=102	=102
1AA	1A]	2c\	1e
.	.	2A/	.
2r	1E	1B	2r
2E\	.	.	2g/
=103	=103	=103	=103
2F\	1r	1A	2a/
2D\	.	.	2b\
1A	2r	2r	1cc
.	2A/	2c\	.
=104	=104	=104	=104
1G	2B\	2d\	2b\
.	2B\	2e\	2g/
2F\	2c\	1f	1a
2D\	2F/	.	.
=105	=105	=105	=105
1E	1G	2e\	2g/
.	.	2c\	2e/
1D	[1A	1d	1f
=106	=106	=106	=106
0AA	1A]	2c\	[0el
.	.	2A/	.
.	1A	1c	.
=107	=107	=107	=107
[0El	1.G	[0Bl	0e_
.	2E/	.	.
=108	=108	=108	=108
0E]	0El	0B]	0e]
==	==	==	==
*-	*-	*-	*-
!!!RDF**kern: l=long note in original notation
!!!RDF**kern: i=editorial accidental
!!!ENC:	Will Watson 01/09/2011; Victoria Chang 04/09/2011
!!!END:	2011/04/09/
!!!EED:	Jesse Rodin
!!!EEV:	2011/09/14/
!!attribution-level@Jos: 1 (secure)
!!!ONB:	Translated from MusicXML and edited on 2011/09/14/ by Craig Sapp
!!muse2ps: T^@{OPR}^u^@{ONM}{. }@{OTL}^C^@{COM}\n@{SCT}^i2I100v85,90,85,150c130Q16
